public/logo-farm-01.svg

<svg xmlns="http://www.w3.org/2000/svg" viewBox="0 0 1568 1568" style="fill:#111827"><path d="M770 366.6c-12.7 3.4-21.6 10.7-26.9 21.8l-3 6.5-67.8.4c-65.4.3-68.1.4-77.5 2.5-48.1 10.9-85.4 44.1-100.2 89.5-6.4 19.2-6.6 23.1-6.6 104 0 49.3-.4 74.3-1.1 77.9-3.4 16.3-17.9 30.9-35.8 36.2-11.8 3.5-30.6 1.3-40.7-4.6-5.1-3-13.3-2.2-17.4 1.7-4.7 4.5-5.6 9-4.2 20.1 2.9 23 16.8 43.7 36.3 53.9 3.8 2 6.9 3.9 6.9 4.3s-2 1.7-4.4 3c-6.1 3.3-17.8 14.2-23 21.6-8.2 11.6-13.5 24.6-15.5 38.3-1.4 9.3-1.4 86.6-.1 95.3 4.9 30.9 26.6 55.8 56.3 64.7 5.6 1.7 11.8 2.6 19.4 3l11.1.6.4 45.6.5 45.6 2.7 10.3c12.3 46.3 44.8 78.3 91.5 89.9 6 1.6 24.4 1.7 206.6 2 143.4.3 202.8.1 209.9-.7 35.8-4.1 68.9-26 88-58.3 5.5-9.4 11.1-23.2 13.8-34.4 2-8.1 2.1-12.2 2.5-54.4l.4-45.6 11.2-.6c30.1-1.4 55.4-17.8 68.2-44.2 7.8-16.3 7.8-16.2 8.2-67.2.4-38.2.2-46.6-1.2-54.5-1.7-9.7-6-21-11.7-30.5-4.9-8.2-15.6-19.2-23.6-24.3-3.9-2.5-7.1-4.8-7.1-5.2-.1-.4.8-.9 1.9-1.3 4.7-1.5 17.1-10.7 23.2-17.3 10.6-11.5 16.9-26.1 18.4-42.6.8-8.6-.4-13.1-4.5-17-4.4-4.3-10.5-4.6-18.3-1.1-9.2 4.2-15.3 5.5-25.4 5.5-20.8 0-38.1-10.4-47-28.4l-3.9-8-.5-81.5-.6-81.6-3.1-11.5c-9-33.7-27.6-60.1-55.3-78.6-14.6-9.7-28.1-15.3-47.2-19.6-8.9-2-12.6-2.2-77.5-2.5l-68.2-.4-2.9-6.2c-3.7-8-7.3-12.2-14.5-16.8-10-6.4-27.8-8.8-40.7-5.3m42.8 95.4c35.6 2.6 78.3 10.3 90.8 16.5 8.7 4.3 16.3 12.2 19.6 20.5 2.2 5.3 2.3 7 2.6 41.5.2 19.8 0 37.5-.3 39.3-.8 4.6-5.9 10-10.5 11.2-3.3.9-6.5.4-21.2-2.9-42.9-9.7-67.2-12.5-108.8-12.6-40.8 0-68.8 3-106.5 11.6-7.1 1.6-15.1 3.4-17.7 4-4 .9-5.4.7-9.2-1-2.8-1.2-5.4-3.3-6.6-5.3-2-3.2-2-4.5-1.8-43.3.3-39.6.3-40 2.6-44.7 6.3-12.7 17.2-19.9 37.2-24.2 44.8-9.8 89.4-13.4 129.8-10.6m23.1 167.5c71.6 6.2 140.7 24.7 196.2 52.5 7.5 3.8 14 7.4 14.3 7.9 1 1.6-8 11.6-16.4 18.4-14.7 11.7-24.9 15.2-42.5 14.5-9.5-.4-12.4-1-21.5-4.2-59.3-21.4-103.3-30.6-160.3-33.7-60.8-3.4-130.4 7.6-193.4 30.5-17.5 6.3-23.4 7.6-35.1 7.6-15.7 0-28.1-5-41.3-16.7-9.8-8.7-14.1-13.8-13.7-16 .2-1.2 5.1-4.2 13.8-8.5 62.3-31 142.5-50.4 224.5-54.2 15-.7 57.9.4 75.4 1.9m2.6 97.9c35 4.6 66.3 12.2 100 24.1 27.1 9.6 32.5 10.8 51 10.9 16.8.1 24.5-1.1 35.5-5.4 2.8-1.1 5.6-2 6.3-2 2.3 0 11.8 27.2 16.1 46 3 13.3 4.8 28.3 4.9 41.7l.2 13.8h-28.3l-7.4-7.7c-15.7-16.3-31.1-19.3-100.8-19.3-53.1 0-75.8 2.2-89 8.7-6.2 3-15.9 11.5-19.1 16.7l-1.5 2.4-21.8.1-21.7.1-5.6-6.4c-10.4-11.7-21.4-17-39.8-19-23.2-2.6-44.2-3.4-76.5-2.8-63.3 1.2-74.6 3.6-89.8 19.5l-7.3 7.7h-28.4l.1-12.5c.2-22.9 5.5-49.4 14.9-75.5 2.6-7.2 4.9-13.2 5.1-13.4.2-.3 3.9.8 8.2 2.3 16.1 5.6 33.3 6.9 51.2 4.1 5.7-.9 18.4-4.5 31.5-8.9 44.8-15.1 73.8-21.9 110.5-26 20.8-2.4 20.6-2.4 52.5-2.1 25.2.3 33.1.8 49 2.9M472.9 836.6l3.1.6V967h-6.8c-16.6 0-31.2-9.1-38-23.8l-2.7-5.7v-71l2.6-5.6c6-12.8 17.9-21.6 32.4-23.9 2.8-.4 5.3-.8 5.6-.9.4 0 2.1.2 3.8.5m632.7.5c13.2 2.4 24.9 11.1 30.6 22.7l3.3 6.7v71l-3.2 6.6c-4.1 8.3-11.1 15-20.1 19.2-5.5 2.5-8.2 3.2-15.4 3.5l-8.8.4V837.9l2.3-.9c3-1.2 4.3-1.2 11.3.1M710 861.3c12.2 1.6 16.8 3.5 21.4 8.9 6.6 7.7 6.7 14.9.5 48-3.2 17-6.8 29.7-10.1 35.6-6.3 10.9-16 18.7-27.8 22.2-12.5 3.7-37.3 4.9-62.1 3-20.7-1.6-30.1-5.1-39.4-14.4-9.3-9.2-13.7-21.7-18.9-52.6-4.8-29.5-4.6-35.7 2-43 4.6-5.1 9.7-6.6 25.9-8 7.2-.5 15-1.2 17.5-1.4 10.5-.9 81 .4 91 1.7m260.5 0c13.4 1.6 15.7 2.3 20.4 6.2 7.9 6.7 8.7 13.8 4.5 40.3-3.1 19.8-7.2 36.8-10.9 44.5-6.4 13.6-20.7 23.5-36.9 25.7-14.1 1.8-39.3 2.3-54.1 1.1-20.6-1.8-29.7-5.4-39.6-15.8-5.8-6.1-8.4-10.4-11.4-19.2-5.1-15.2-12.1-57.4-10.6-64.1 3-13 10-17.2 32.1-19 8-.6 15.6-1.3 17-1.5 6.5-.9 78.5.5 89.5 1.8m-432.7 30c1.7 1.8 2.6 5.6 4.7 18.7 6.9 44.3 12.9 60.4 28.5 76.1 7.3 7.4 9.9 9.3 18 13.2 17.5 8.3 32 10.2 71.7 9.4 19.5-.4 28.7-1 33.7-2.1 3.8-.9 7.3-1.3 7.7-.9.4.5 1 3.4 1.4 6.5.7 5.7.7 5.7-2.1 6.3-35.5 7.9-60.4 25.3-72.2 50.3-4.5 9.4-5.8 17.7-3.8 24.4 3.2 11 11.9 17.3 23.7 17.2 5.6-.1 8-.7 14.6-3.8l8-3.8 6.2 4.1c10.4 6.7 16.1 8.5 27.6 8.5 12.1.1 18.5-1.6 27.5-7.5l6.5-4.2 3.5 2.2c14.7 9.1 26.2 12.6 42 12.5 15.4 0 27.3-3.6 40.1-12.1l3.7-2.5 6.7 4.1c10.3 6.2 15.4 7.6 27 7.5 11.7 0 18.1-2 28.2-8.5l6.4-4.2 6.2 3.2c13.7 6.9 24.7 6.1 33.2-2.4 6.1-6.1 8.2-13.1 6.5-22.1-.7-3.5-2.5-9.1-4.2-12.6-11.8-25.1-37.1-42.7-72.1-50.3-2.8-.6-2.8-.6-2.2-6.3.4-3.1 1-6 1.4-6.4s4.3 0 8.6.9c6.7 1.5 13.5 1.8 41.5 1.7 38.5 0 45.9-1 61.1-8.1 29.3-13.8 40.7-35.3 48.9-91.8 1.1-7.6 2.7-14.9 3.5-16.2 2-3 4.3-3.5 14.5-3.1l8.5.3v204l-2.3 8c-8.5 29.5-33.9 53.1-62.6 58.4-4.2.8-65.2 1.1-203.8 1.1-217.6 0-203.3.4-218.8-6-17.4-7.2-32.7-21.5-41.4-38.7-1.4-2.8-3.8-9.1-5.3-14l-2.8-8.8-.3-100.9c-.1-55.5 0-101.6.2-102.3.4-.9 3.2-1.3 10.4-1.3 8.9 0 10 .2 12 2.3m257.5-.9c5.6 2.3 6.5 4.2 8.7 18.5 5.8 37.6 11.5 55.6 22.5 70.9 16.8 23.5 4.2 52.8-26.2 60.7-7.5 2-25.1 2-32.7 0-14.2-3.7-24.4-11.6-29.9-23.2-2.8-6-3.2-7.8-3.2-15.3 0-10 1.5-14.5 8.2-23.8 10.3-14.5 16.9-36.2 22.4-73.5 1.3-9.2 3.2-13.1 7.3-14.7 3.4-1.4 19.3-1.1 22.9.4"/><path d="M640.5 772.6c-17.9 1.9-39.1 6.6-46.4 10.3-14.2 7.3-16 27.5-3.2 36.6 3.6 2.6 5.2 3 10.4 3 3.4 0 11.4-1.1 17.7-2.3 18.6-3.6 33.9-4.5 53.5-3 9.4.7 20.9 1.3 25.6 1.3 7.7 0 9-.3 12.7-2.8 5.4-3.5 8.2-9 8.2-16.1 0-6.9-1-9.5-5.5-14.4-4.7-5.3-10.6-7.6-25.5-10.2-12-2-38.3-3.4-47.5-2.4m256.5 0c-10.6 1-29.9 4.7-34 6.5-9.6 4.3-14.4 11.7-13.8 21.5.5 8 3.8 13.3 10.3 16.4 5.2 2.5 2.4 2.5 37 0 17.8-1.4 35.4-.2 54.5 3.5 14.5 2.9 17.5 3 22.1 1.1 11.5-4.8 16-18.9 9.6-29.9-5-8.5-14.2-12.5-38.7-16.8-10.3-1.8-37.7-3.2-47-2.3M649.4 889c-5.6 1.7-12.7 7.3-15.9 12.4-2.8 4.6-3 5.7-3 14 0 8.6.2 9.4 3.3 14.3 11.2 17.5 36.6 16.5 46.7-1.8 5.6-10.1 3.4-24.1-5.2-32-6.6-6.2-18.2-9.2-25.9-6.9m255 0c-12.8 4-22.1 18.3-19.8 30.7 1.6 9 9 18 17.1 20.7 5.4 1.8 14.4 2 19 .3 6-2.2 11.7-7.2 14.8-12.8 5.6-10.4 3.1-25-5.6-32.3-7.3-6.2-17.9-8.9-25.5-6.6"/></svg>

<svg xmlns="http://www.w3.org/2000/svg" viewBox="0 0 792 836" style="fill:#111827;fill-rule:evenodd;clip-rule:evenodd;stroke-linejoin:round;stroke-miterlimit:2;"><g transform="matrix(1,0,0,1,-388.037153,-364.989282)"><path fill-rule="nonzero" d="M770,366.6C757.3,370 748.4,377.3 743.1,388.4L740.1,394.9L672.3,395.3C606.9,395.6 604.2,395.7 594.8,397.8C546.7,408.7 509.4,441.9 494.6,487.3C488.2,506.5 488,510.4 488,591.3C488,640.6 487.6,665.6 486.9,669.2C483.5,685.5 469,700.1 451.1,705.4C439.3,708.9 420.5,706.7 410.4,700.8C405.3,697.8 397.1,698.6 393,702.5C388.3,707 387.4,711.5 388.8,722.6C391.7,745.6 405.6,766.3 425.1,776.5C428.9,778.5 432,780.4 432,780.8C432,781.2 430,782.5 427.6,783.8C421.5,787.1 409.8,798 404.6,805.4C396.4,817 391.1,830 389.1,843.7C387.7,853 387.7,930.3 389,939C393.9,969.9 415.6,994.8 445.3,1003.7C450.9,1005.4 457.1,1006.3 464.7,1006.7L475.8,1007.3L476.2,1052.9L476.7,1098.5L479.4,1108.8C491.7,1155.1 524.2,1187.1 570.9,1198.7C576.9,1200.3 595.3,1200.4 777.5,1200.7C920.9,1201 980.3,1200.8 987.4,1200C1023.2,1195.9 1056.3,1174 1075.4,1141.7C1080.9,1132.3 1086.5,1118.5 1089.2,1107.3C1091.2,1099.2 1091.3,1095.1 1091.7,1052.9L1092.1,1007.3L1103.3,1006.7C1133.4,1005.3 1158.7,988.9 1171.5,962.5C1179.3,946.2 1179.3,946.3 1179.7,895.3C1180.1,857.1 1179.9,848.7 1178.5,840.8C1176.8,831.1 1172.5,819.8 1166.8,810.3C1161.9,802.1 1151.2,791.1 1143.2,786C1139.3,783.5 1136.1,781.2 1136.1,780.8C1136,780.4 1136.9,779.9 1138,779.5C1142.7,778 1155.1,768.8 1161.2,762.2C1171.8,750.7 1178.1,736.1 1179.6,719.6C1180.4,711 1179.2,706.5 1175.1,702.6C1170.7,698.3 1164.6,698 1156.8,701.5C1147.6,705.7 1141.5,707 1131.4,707C1110.6,707 1093.3,696.6 1084.4,678.6L1080.5,670.6L1080,589.1L1079.4,507.5L1076.3,496C1067.3,462.3 1048.7,435.9 1021,417.4C1006.4,407.7 992.9,402.1 973.8,397.8C964.9,395.8 961.2,395.6 896.3,395.3L828.1,394.9L825.2,388.7C821.5,380.7 817.9,376.5 810.7,371.9C800.7,365.5 782.9,363.1 770,366.6M812.8,462C848.4,464.6 891.1,472.3 903.6,478.5C912.3,482.8 919.9,490.7 923.2,499C925.4,504.3 925.5,506 925.8,540.5C926,560.3 925.8,578 925.5,579.8C924.7,584.4 919.6,589.8 915,591C911.7,591.9 908.5,591.4 893.8,588.1C850.9,578.4 826.6,575.6 785,575.5C744.2,575.5 716.2,578.5 678.5,587.1C671.4,588.7 663.4,590.5 660.8,591.1C656.8,592 655.4,591.8 651.6,590.1C648.8,588.9 646.2,586.8 645,584.8C643,581.6 643,580.3 643.2,541.5C643.5,501.9 643.5,501.5 645.8,496.8C652.1,484.1 663,476.9 683,472.6C727.8,462.8 772.4,459.2 812.8,462M835.9,629.5C907.5,635.7 976.6,654.2 1032.1,682C1039.6,685.8 1046.1,689.4 1046.4,689.9C1047.4,691.5 1038.4,701.5 1030,708.3C1015.3,720 1005.1,723.5 987.5,722.8C978,722.4 975.1,721.8 966,718.6C906.7,697.2 862.7,688 805.7,684.9C744.9,681.5 675.3,692.5 612.3,715.4C594.8,721.7 588.9,723 577.2,723C561.5,723 549.1,718 535.9,706.3C526.1,697.6 521.8,692.5 522.2,690.3C522.4,689.1 527.3,686.1 536,681.8C598.3,650.8 678.5,631.4 760.5,627.6C775.5,626.9 818.4,628 835.9,629.5M838.5,727.4C873.5,732 904.8,739.6 938.5,751.5C965.6,761.1 971,762.3 989.5,762.4C1006.3,762.5 1014,761.3 1025,757C1027.8,755.9 1030.6,755 1031.3,755C1033.6,755 1043.1,782.2 1047.4,801C1050.4,814.3 1052.2,829.3 1052.3,842.7L1052.5,856.5L1024.2,856.5L1016.8,848.8C1001.1,832.5 985.7,829.5 916,829.5C862.9,829.5 840.2,831.7 827,838.2C820.8,841.2 811.1,849.7 807.9,854.9L806.4,857.3L784.6,857.4L762.9,857.5L757.3,851.1C746.9,839.4 735.9,834.1 717.5,832.1C694.3,829.5 673.3,828.7 641,829.3C577.7,830.5 566.4,832.9 551.2,848.8L543.9,856.5L515.5,856.5L515.6,844C515.8,821.1 521.1,794.6 530.5,768.5C533.1,761.3 535.4,755.3 535.6,755.1C535.8,754.8 539.5,755.9 543.8,757.4C559.9,763 577.1,764.3 595,761.5C600.7,760.6 613.4,757 626.5,752.6C671.3,737.5 700.3,730.7 737,726.6C757.8,724.2 757.6,724.2 789.5,724.5C814.7,724.8 822.6,725.3 838.5,727.4M472.9,836.6L476,837.2L476,967L469.2,967C452.6,967 438,957.9 431.2,943.2L428.5,937.5L428.5,866.5L431.1,860.9C437.1,848.1 449,839.3 463.5,837C466.3,836.6 468.8,836.2 469.1,836.1C469.5,836.1 471.2,836.3 472.9,836.6M1105.6,837.1C1118.8,839.5 1130.5,848.2 1136.2,859.8L1139.5,866.5L1139.5,937.5L1136.3,944.1C1132.2,952.4 1125.2,959.1 1116.2,963.3C1110.7,965.8 1108,966.5 1100.8,966.8L1092,967.2L1092,837.9L1094.3,837C1097.3,835.8 1098.6,835.8 1105.6,837.1M710,861.3C722.2,862.9 726.8,864.8 731.4,870.2C738,877.9 738.1,885.1 731.9,918.2C728.7,935.2 725.1,947.9 721.8,953.8C715.5,964.7 705.8,972.5 694,976C681.5,979.7 656.7,980.9 631.9,979C611.2,977.4 601.8,973.9 592.5,964.6C583.2,955.4 578.8,942.9 573.6,912C568.8,882.5 569,876.3 575.6,869C580.2,863.9 585.3,862.4 601.5,861C608.7,860.5 616.5,859.8 619,859.6C629.5,858.7 700,860 710,861.3M970.5,861.3C983.9,862.9 986.2,863.6 990.9,867.5C998.8,874.2 999.6,881.3 995.4,907.8C992.3,927.6 988.2,944.6 984.5,952.3C978.1,965.9 963.8,975.8 947.6,978C933.5,979.8 908.3,980.3 893.5,979.1C872.9,977.3 863.8,973.7 853.9,963.3C848.1,957.2 845.5,952.9 842.5,944.1C837.4,928.9 830.4,886.7 831.9,880C834.9,867 841.9,862.8 864,861C872,860.4 879.6,859.7 881,859.5C887.5,858.6 959.5,860 970.5,861.3M537.8,891.3C539.5,893.1 540.4,896.9 542.5,910C549.4,954.3 555.4,970.4 571,986.1C578.3,993.5 580.9,995.4 589,999.3C606.5,1007.6 621,1009.5 660.7,1008.7C680.2,1008.3 689.4,1007.7 694.4,1006.6C698.2,1005.7 701.7,1005.3 702.1,1005.7C702.5,1006.2 703.1,1009.1 703.5,1012.2C704.2,1017.9 704.2,1017.9 701.4,1018.5C665.9,1026.4 641,1043.8 629.2,1068.8C624.7,1078.2 623.4,1086.5 625.4,1093.2C628.6,1104.2 637.3,1110.5 649.1,1110.4C654.7,1110.3 657.1,1109.7 663.7,1106.6L671.7,1102.8L677.9,1106.9C688.3,1113.6 694,1115.4 705.5,1115.4C717.6,1115.5 724,1113.8 733,1107.9L739.5,1103.7L743,1105.9C757.7,1115 769.2,1118.5 785,1118.4C800.4,1118.4 812.3,1114.8 825.1,1106.3L828.8,1103.8L835.5,1107.9C845.8,1114.1 850.9,1115.5 862.5,1115.4C874.2,1115.4 880.6,1113.4 890.7,1106.9L897.1,1102.7L903.3,1105.9C917,1112.8 928,1112 936.5,1103.5C942.6,1097.4 944.7,1090.4 943,1081.4C942.3,1077.9 940.5,1072.3 938.8,1068.8C927,1043.7 901.7,1026.1 866.7,1018.5C863.9,1017.9 863.9,1017.9 864.5,1012.2C864.9,1009.1 865.5,1006.2 865.9,1005.8C866.3,1005.4 870.2,1005.8 874.5,1006.7C881.2,1008.2 888,1008.5 916,1008.4C954.5,1008.4 961.9,1007.4 977.1,1000.3C1006.4,986.5 1017.8,965 1026,908.5C1027.1,900.9 1028.7,893.6 1029.5,892.3C1031.5,889.3 1033.8,888.8 1044,889.2L1052.5,889.5L1052.5,1093.5L1050.2,1101.5C1041.7,1131 1016.3,1154.6 987.6,1159.9C983.4,1160.7 922.4,1161 783.8,1161C566.2,1161 580.5,1161.4 565,1155C547.6,1147.8 532.3,1133.5 523.6,1116.3C522.2,1113.5 519.8,1107.2 518.3,1102.3L515.5,1093.5L515.2,992.6C515.1,937.1 515.2,891 515.4,890.3C515.8,889.4 518.6,889 525.8,889C534.7,889 535.8,889.2 537.8,891.3M795.3,890.4C800.9,892.7 801.8,894.6 804,908.9C809.8,946.5 815.5,964.5 826.5,979.8C843.3,1003.3 830.7,1032.6 800.3,1040.5C792.8,1042.5 775.2,1042.5 767.6,1040.5C753.4,1036.8 743.2,1028.9 737.7,1017.3C734.9,1011.3 734.5,1009.5 734.5,1002C734.5,992 736,987.5 742.7,978.2C753,963.7 759.6,942 765.1,904.7C766.4,895.5 768.3,891.6 772.4,890C775.8,888.6 791.7,888.9 795.3,890.4"/></g></svg>
